X: 3823
T: Black Diamond
R: polka
M: 2/4
K: Bminor
|:B,2 BA/B/|dB de|B,B AF|EF/E/ DA,|
B,2 BA/B/|dB de|de/d/ cA|1 Bd BA,:|2 Bd BF||
|:G2 BA/B/|dB de|FB BA/B/|dBAF|
G2 BA/B/|dB de|1 de/d/ cA|Bd BF:|2 e2 ed/e/|fe dA,||

